X: 06038
T: KRISSY FINNEGAN
C: Bob McQuillen 25 Feb 82
B: Bob's Note Book 6 #38
%R: jig
Z: 2021 John Chambers <jc:trillian.mit.edu>
M: 6/8
L: 1/8
K: D
|:DFA dBA | fde dBA | Bdf ede | dBA FDF |\
| EDE FAB | ded BdB | ABA FDF | EDD D3 :|
|:fdf edB | ded BAB | ABd ede | fed BAB |\
| dBA BdB | AFD EFE | DFA Bde | fdd d3 :|
%%begintext align
%% Krissy loves to dance at the
%% Monday Night dances with Peter
%% O'Brien, and so I thought she
%% needed a tune of her own. I
%% hope you like it, Krissy!
%%endtext

%%sep 1 1 500

%%sep 1 1 500

